Sweet-Rainbow/icons/unityhub.svg

<?xml version="1.0" encoding="UTF-8" standalone="no"?>
<!-- Generator: Gravit.io -->

<svg
   xmlns:dc="http://purl.org/dc/elements/1.1/"
   xmlns:cc="http://creativecommons.org/ns#"
   xmlns:rdf="http://www.w3.org/1999/02/22-rdf-syntax-ns#"
   xmlns:svg="http://www.w3.org/2000/svg"
   xmlns="http://www.w3.org/2000/svg"
   xmlns:sodipodi="http://sodipodi.sourceforge.net/DTD/sodipodi-0.dtd"
   xmlns:inkscape="http://www.inkscape.org/namespaces/inkscape"
   style="isolation:isolate"
   viewBox="0 0 36 36"
   width="48"
   height="48"
   version="1.1"
   id="svg9"
   sodipodi:docname="unityhub.svg"
   inkscape:version="0.92.4 (5da689c313, 2019-01-14)">
  <metadata
     id="metadata15">
    <rdf:RDF>
      <cc:Work
         rdf:about="">
        <dc:format>image/svg+xml</dc:format>
        <dc:type
           rdf:resource="http://purl.org/dc/dcmitype/StillImage" />
        <dc:title></dc:title>
      </cc:Work>
    </rdf:RDF>
  </metadata>
  <defs
     id="defs13" />
  <sodipodi:namedview
     pagecolor="#ffffff"
     bordercolor="#666666"
     borderopacity="1"
     objecttolerance="10"
     gridtolerance="10"
     guidetolerance="10"
     inkscape:pageopacity="0"
     inkscape:pageshadow="2"
     inkscape:window-width="640"
     inkscape:window-height="480"
     id="namedview11"
     showgrid="false"
     inkscape:zoom="29.365243"
     inkscape:cx="25.325443"
     inkscape:cy="32"
     inkscape:current-layer="svg9"
     units="px" />
  <linearGradient
     id="_lgradient_40"
     x1="0.21875"
     y1="0.17506042"
     x2="1.0989902"
     y2="1.1181589"
     gradientTransform="matrix(42,0,0,42,3,3)"
     gradientUnits="userSpaceOnUse">
    <stop
       offset="0%"
       stop-opacity="1"
       style="stop-color:rgb(252,203,144)"
       id="stop2" />
    <stop
       offset="83.91304347826087%"
       stop-opacity="1"
       style="stop-color:rgb(213,126,235)"
       id="stop4" />
  </linearGradient>
  <g
     id="g826"
     transform="matrix(0.85714286,0,0,0.85714286,-2.5714286,-2.5714286)">
    <path
       id="path7"
       d="M 35,7 V 7 C 33.896,7 33,6.104 33,5 v 0 c 0,-1.104 0.896,-2 2,-2 v 0 h 5 c 2.76,0 5,2.24 5,5 v 5 0 c 0,1.104 -0.896,2 -2,2 v 0 c -1.104,0 -2,-0.896 -2,-2 v 0 -3 C 41,8.344 39.656,7 38,7 Z M 7,26 v 0 c 0,1.104 -0.896,2 -2,2 v 0 C 3.896,28 3,27.104 3,26 V 26 8 C 3,5.24 5.24,3 8,3 h 18 v 0 c 1.104,0 2,0.896 2,2 v 0 c 0,1.104 -0.896,2 -2,2 V 7 H 10 C 8.344,7 7,8.344 7,10 Z m 6,15 v 0 c 1.104,0 2,0.896 2,2 v 0 c 0,1.104 -0.896,2 -2,2 v 0 H 8 C 5.24,45 3,42.76 3,40 v -5 0 c 0,-1.104 0.896,-2 2,-2 v 0 c 1.104,0 2,0.896 2,2 v 0 3 c 0,1.656 1.344,3 3,3 z M 41,22 v 0 c 0,-1.104 0.896,-2 2,-2 v 0 c 1.104,0 2,0.896 2,2 v 0 18 c 0,2.76 -2.24,5 -5,5 H 22 v 0 c -1.104,0 -2,-0.896 -2,-2 v 0 c 0,-1.104 0.896,-2 2,-2 v 0 h 16 c 1.656,0 3,-1.344 3,-3 z M 28.561,15.148 24.229,22.65 h -8.665 l 5.491,-5.49 z m 2.336,1.349 2.011,7.502 -2.011,7.504 -4.332,-7.504 z m -15.333,8.851 h 8.665 l 4.332,7.504 -7.505,-2.012 z M 32.202,11.539 21.76,14.336 20.595,16.355 h -2.333 l -7.644,7.644 7.644,7.645 h 2.331 l 1.167,2.02 10.442,2.797 L 35,26.019 33.834,23.999 35,21.981 Z"
       inkscape:connector-curvature="0"
       style="fill:url(#_lgradient_40);fill-rule:evenodd" />
  </g>
</svg>

<?xml version="1.0" encoding="UTF-8" standalone="no"?><!-- Generator: Gravit.io --><svg xmlns="http://www.w3.org/2000/svg" xmlns:xlink="http://www.w3.org/1999/xlink" style="isolation:isolate" viewBox="0 0 48 48" width="48pt" height="48pt"><linearGradient id="_lgradient_40" x1="0.21874999649848828" y1="0.17506041551987891" x2="1.098990208503709" y2="1.1181589937900303" gradientTransform="matrix(42,0,0,42,3,3)" gradientUnits="userSpaceOnUse"><stop offset="0%" stop-opacity="1" style="stop-color:rgb(252,203,144)"/><stop offset="83.91304347826087%" stop-opacity="1" style="stop-color:rgb(213,126,235)"/></linearGradient><path d=" M 35 7 L 35 7 C 33.896 7 33 6.104 33 5 L 33 5 C 33 3.896 33.896 3 35 3 L 35 3 L 40 3 C 42.76 3 45 5.24 45 8 L 45 13 L 45 13 C 45 14.104 44.104 15 43 15 L 43 15 C 41.896 15 41 14.104 41 13 L 41 13 L 41 10 C 41 8.344 39.656 7 38 7 L 35 7 L 35 7 L 35 7 L 35 7 Z  M 7 26 L 7 26 C 7 27.104 6.104 28 5 28 L 5 28 C 3.896 28 3 27.104 3 26 L 3 26 L 3 8 C 3 5.24 5.24 3 8 3 L 26 3 L 26 3 C 27.104 3 28 3.896 28 5 L 28 5 C 28 6.104 27.104 7 26 7 L 26 7 L 10 7 C 8.344 7 7 8.344 7 10 L 7 26 L 7 26 L 7 26 L 7 26 Z  M 13 41 L 13 41 C 14.104 41 15 41.896 15 43 L 15 43 C 15 44.104 14.104 45 13 45 L 13 45 L 8 45 C 5.24 45 3 42.76 3 40 L 3 35 L 3 35 C 3 33.896 3.896 33 5 33 L 5 33 C 6.104 33 7 33.896 7 35 L 7 35 L 7 38 C 7 39.656 8.344 41 10 41 L 13 41 L 13 41 L 13 41 Z  M 41 22 L 41 22 C 41 20.896 41.896 20 43 20 L 43 20 C 44.104 20 45 20.896 45 22 L 45 22 L 45 40 C 45 42.76 42.76 45 40 45 L 22 45 L 22 45 C 20.896 45 20 44.104 20 43 L 20 43 C 20 41.896 20.896 41 22 41 L 22 41 L 38 41 C 39.656 41 41 39.656 41 38 L 41 22 L 41 22 Z  M 28.561 15.148 L 24.229 22.65 L 15.564 22.65 L 21.055 17.16 L 28.561 15.148 L 28.561 15.148 Z  M 30.897 16.497 L 32.908 23.999 L 30.897 31.503 L 26.565 23.999 L 30.897 16.497 L 30.897 16.497 Z  M 15.564 25.348 L 24.229 25.348 L 28.561 32.852 L 21.056 30.84 L 15.564 25.348 L 15.564 25.348 Z  M 32.202 11.539 L 21.76 14.336 L 20.595 16.355 L 18.262 16.355 L 10.618 23.999 L 18.262 31.644 L 20.593 31.644 L 21.76 33.664 L 32.202 36.461 L 35 26.019 L 33.834 23.999 L 35 21.981 L 32.202 11.539 L 32.202 11.539 Z " fill-rule="evenodd" fill="url(#_lgradient_40)"/></svg>
